X:14
T:March,2voices. JGi.014
S:Joshua Gibbons MS,1823,Tealby,Lincs.
M:C|
L:1/8
Q:1/4=120
R:march
O:Tealby,Lincolnshire
Z:VMP/R.Greig, 2009
K:C
[V:1]|:G2|c2e>dc2e>d|c>G E>Gc2d2|e2g>fe2g>f|e>dc>de2g2|
[V:2]|:z2|z8|z4z2G2|c2(e>d)c2e>d|(c>G)(E>G)c2e2|
[V:1]a2a>aa2(3c’ba|g2g>gg2(3bge|f2f>ff2e2|d2d>dd2:|
[V:2]f2f>ff2(3agf|e2e>ee2(3gec|d2d>dd2c2|B2B>BB2:|
[V:1]|:d|e2g>ef2d>f|e2g>ef2d>f|e>cg>e a>gf>e|d2d>dd2G2|
[V:2]|:B|c2(e>c)d2(B>d)|c2(e>c)d2(B>d)|(c>A)(e>c) f>ed>c|
[V:1]c2E>Gc2d2|e2c>de2f2|g>ea>fe2d2|c2c>cc2|]
[V:2]B2B>BB2z2|z4z2G2|c2E>Gc2d2|(e>c)(f>d)c2B2|e2e>ee2|]

